packages/assets/static/images/icons/stack.svg

<svg width="24" height="24" viewBox="0 0 24 24" xmlns="http://www.w3.org/2000/svg" fill="currentColor" aria-hidden="true"> <path d="M22.4713 15.9375C22.62 16.1953 22.6605 16.5016 22.5839 16.7893C22.5073 17.0769 22.3198 17.3225 22.0625 17.4722L13.0625 22.7222C12.8904 22.8227 12.6946 22.8756 12.4953 22.8756C12.296 22.8756 12.1003 22.8227 11.9281 22.7222L2.92813 17.4722C2.67029 17.3219 2.48272 17.0753 2.40668 16.7867C2.33064 16.4981 2.37236 16.1911 2.52266 15.9333C2.67296 15.6754 2.91954 15.4879 3.20814 15.4118C3.49674 15.3358 3.80373 15.3775 4.06157 15.5278L12.4991 20.4478L20.9375 15.5278C21.1954 15.3794 21.5015 15.3392 21.789 15.416C22.0764 15.4928 22.3217 15.6803 22.4713 15.9375ZM20.9375 11.0278L12.5 15.9478L4.06719 11.0278C3.81008 10.8898 3.50939 10.857 3.2286 10.9365C2.94781 11.016 2.70889 11.2015 2.56229 11.4538C2.41568 11.7061 2.37287 12.0056 2.44288 12.2889C2.51289 12.5722 2.69024 12.8172 2.9375 12.9722L11.9375 18.2222C12.1096 18.3227 12.3054 18.3756 12.5047 18.3756C12.704 18.3756 12.8997 18.3227 13.0719 18.2222L22.0719 12.9722C22.3297 12.8218 22.5172 12.5751 22.5932 12.2864C22.6691 11.9977 22.6273 11.6906 22.4769 11.4328C22.3265 11.175 22.0798 10.9874 21.7911 10.9115C21.5024 10.8355 21.1953 10.8774 20.9375 11.0278ZM2.375 7.49999C2.37537 7.30287 2.42753 7.1093 2.52625 6.93868C2.62497 6.76805 2.76679 6.62637 2.9375 6.5278L11.9375 1.2778C12.1098 1.17787 12.3055 1.12524 12.5047 1.12524C12.7039 1.12524 12.8996 1.17787 13.0719 1.2778L22.0719 6.5278C22.2419 6.62682 22.383 6.76871 22.4811 6.9393C22.5792 7.10989 22.6308 7.30322 22.6308 7.49999C22.6308 7.69676 22.5792 7.89009 22.4811 8.06069C22.383 8.23128 22.2419 8.37316 22.0719 8.47218L13.0719 13.7222C12.8997 13.8227 12.704 13.8756 12.5047 13.8756C12.3054 13.8756 12.1096 13.8227 11.9375 13.7222L2.9375 8.47218C2.76679 8.37362 2.62497 8.23193 2.52625 8.06131C2.42753 7.89068 2.37537 7.69712 2.375 7.49999ZM5.73313 7.49999L12.5 11.4478L19.2669 7.49999L12.5 3.55218L5.73313 7.49999Z"/> </svg>

<svg viewBox="0 0 24 24" xmlns="http://www.w3.org/2000/svg" aria-hidden="true" fill="currentColor"><path d="M22.471 15.938a1.125 1.125 0 0 1-.409 1.534l-9 5.25a1.13 1.13 0 0 1-1.134 0l-9-5.25a1.125 1.125 0 0 1 1.134-1.944l8.437 4.92 8.439-4.92a1.125 1.125 0 0 1 1.533.41m-1.533-4.91-8.438 4.92-8.433-4.92a1.125 1.125 0 0 0-1.13 1.944l9 5.25a1.13 1.13 0 0 0 1.135 0l9-5.25a1.126 1.126 0 0 0-1.134-1.944M2.375 7.5a1.13 1.13 0 0 1 .563-.972l9-5.25a1.13 1.13 0 0 1 1.134 0l9 5.25a1.126 1.126 0 0 1 0 1.944l-9 5.25a1.13 1.13 0 0 1-1.134 0l-9-5.25a1.13 1.13 0 0 1-.563-.972m3.358 0 6.767 3.948L19.267 7.5 12.5 3.552z"/></svg>
